projects/jtProject/images/icons/SVG-raw/like.svg

<svg width="24" height="24" viewBox="0 0 24 24" version="1.1" xmlns="http://www.w3.org/2000/svg" xmlns:xlink="http://www.w3.org/1999/xlink">
<g id="Canvas" transform="translate(-1793 -5485)">
<g id="iconLike">
<g id="Ellipse">
<use xlink:href="#path0_fill" transform="translate(1793 5485)" fill="#FFFFFF"/>
</g>
<g id="Ellipse 2">
<use xlink:href="#path1_stroke" transform="translate(1799.85 5492.93)" fill="#E0E0E0"/>
</g>
</g>
</g>
<defs>
<path id="path0_fill" d="M 24 12C 24 18.6274 18.6274 24 12 24C 5.37258 24 0 18.6274 0 12C 0 5.37258 5.37258 0 12 0C 18.6274 0 24 5.37258 24 12Z"/>
<path id="path1_stroke" d="M 10.1474 4.06608L 11.1174 4.30909L 10.1474 4.06608ZM 5.14737 9.06608L 4.75555 9.98612C 5.00583 10.0927 5.28874 10.0927 5.53904 9.98619L 5.14737 9.06608ZM 0.147372 4.06608L -0.822562 4.30945L 0.147372 4.06608ZM 5.14737 2.06616L 4.21876 2.43721C 4.37048 2.81693 4.7381 3.06601 5.14701 3.06616C 5.55591 3.06631 5.92371 2.81749 6.07571 2.43789L 5.14737 2.06616ZM 2.14737 0.0660953L 1.905 -0.904087L 2.14737 0.0660953ZM 8.14737 0.0661509L 8.39004 -0.903959L 8.14737 0.0661509ZM 9.17735 3.82307C 8.85951 5.09177 7.83685 6.16595 6.7516 6.96686C 6.22461 7.35577 5.71784 7.65446 5.3428 7.85557C 5.15604 7.95571 5.00395 8.0306 4.90093 8.07942C 4.84947 8.10381 4.8104 8.12162 4.78556 8.13276C 4.77314 8.13833 4.76429 8.14223 4.75923 8.14443C 4.75671 8.14554 4.75513 8.14622 4.75453 8.14648C 4.75423 8.14661 4.75417 8.14663 4.75437 8.14655C 4.75446 8.14651 4.75462 8.14644 4.75485 8.14634C 4.75496 8.1463 4.75517 8.1462 4.75522 8.14618C 4.75545 8.14608 4.7557 8.14598 5.14737 9.06608C 5.53904 9.98619 5.53932 9.98607 5.53961 9.98595C 5.53973 9.9859 5.54004 9.98576 5.54028 9.98566C 5.54076 9.98546 5.5413 9.98523 5.5419 9.98497C 5.54311 9.98445 5.54458 9.98382 5.5463 9.98308C 5.54974 9.98159 5.55419 9.97967 5.55963 9.97729C 5.57049 9.97255 5.58529 9.96602 5.60379 9.95773C 5.64079 9.94114 5.69263 9.91745 5.75745 9.88673C 5.88697 9.82535 6.06888 9.73562 6.28796 9.61814C 6.7246 9.384 7.31684 9.03538 7.93919 8.57609C 9.15262 7.68059 10.63 6.25477 11.1174 4.30909L 9.17735 3.82307ZM 5.14737 9.06608C 5.53919 8.14604 5.53944 8.14615 5.53967 8.14624C 5.53972 8.14627 5.53994 8.14636 5.54005 8.14641C 5.54027 8.1465 5.54043 8.14657 5.54052 8.14661C 5.54072 8.14669 5.54066 8.14667 5.54036 8.14654C 5.53976 8.14628 5.53819 8.1456 5.53566 8.1445C 5.5306 8.14229 5.52176 8.13839 5.50934 8.13282C 5.4845 8.12168 5.44545 8.10387 5.394 8.07948C 5.291 8.03065 5.13895 7.95575 4.95223 7.85559C 4.57728 7.65446 4.0706 7.35574 3.54366 6.9668C 2.45853 6.16585 1.43567 5.09155 1.11731 3.82271L -0.822562 4.30945C -0.334476 6.2547 1.14266 7.6804 2.35593 8.57593C 2.97818 9.03522 3.57029 9.38387 4.00682 9.61803C 4.22585 9.73553 4.40772 9.82527 4.53721 9.88666C 4.602 9.91738 4.65383 9.94107 4.69082 9.95766C 4.70931 9.96596 4.72411 9.97248 4.73497 9.97723C 4.74041 9.9796 4.74486 9.98153 4.74829 9.98301C 4.75001 9.98376 4.75148 9.98438 4.75269 9.9849C 4.7533 9.98516 4.75384 9.98539 4.75431 9.9856C 4.75455 9.9857 4.75486 9.98583 4.75498 9.98588C 4.75527 9.98601 4.75555 9.98612 5.14737 9.06608ZM 1.11731 3.82271C 0.911026 3.0006 0.996943 2.36163 1.217 1.9245C 1.42889 1.5036 1.80678 1.18192 2.38975 1.03628L 1.905 -0.904087C 0.79357 -0.626425 -0.0794482 0.0519246 -0.569409 1.0252C -1.05121 1.98226 -1.11809 3.13164 -0.822562 4.30945L 1.11731 3.82271ZM 2.38975 1.03628C 2.87493 0.915067 3.27047 1.11552 3.65027 1.54292C 3.83637 1.75234 3.98292 1.98229 4.08431 2.16618C 4.134 2.25631 4.1704 2.3309 4.19321 2.38014C 4.20457 2.40465 4.21241 2.42254 4.2167 2.43255C 4.21884 2.43754 4.22009 2.44054 4.22044 2.44138C 4.22061 2.4418 4.22056 2.44167 4.22028 2.44098C 4.22014 2.44064 4.21994 2.44016 4.21969 2.43953C 4.21956 2.43921 4.21942 2.43886 4.21927 2.43848C 4.21919 2.43829 4.21906 2.43797 4.21902 2.43787C 4.21889 2.43755 4.21876 2.43721 5.14737 2.06616C 6.07598 1.69511 6.07584 1.69476 6.0757 1.69439C 6.07564 1.69426 6.07549 1.69388 6.07539 1.69361C 6.07517 1.69308 6.07494 1.6925 6.07469 1.69188C 6.07419 1.69065 6.07363 1.68926 6.073 1.68772C 6.07175 1.68463 6.07023 1.68093 6.06845 1.67663C 6.0649 1.66804 6.06029 1.65706 6.05463 1.64386C 6.04331 1.61749 6.02773 1.58216 6.00787 1.53929C 5.96824 1.45377 5.91096 1.33695 5.83574 1.20052C 5.68729 0.931286 5.45904 0.567485 5.14527 0.214399C 4.52534 -0.483217 3.42088 -1.28279 1.905 -0.904087L 2.38975 1.03628ZM 5.14737 2.06616C 6.07571 2.43789 6.07558 2.43822 6.07545 2.43855C 6.07541 2.43865 6.07528 2.43896 6.0752 2.43915C 6.07505 2.43954 6.07491 2.43989 6.07478 2.4402C 6.07453 2.44083 6.07433 2.44131 6.07419 2.44165C 6.07392 2.44234 6.07386 2.44246 6.07404 2.44204C 6.07439 2.44119 6.07564 2.43819 6.07779 2.43319C 6.0821 2.42317 6.08996 2.40526 6.10134 2.38074C 6.12421 2.33146 6.16068 2.25684 6.21046 2.16667C 6.31203 1.9827 6.4588 1.75264 6.6451 1.54311C 7.02556 1.1152 7.421 0.915266 7.90471 1.03626L 8.39004 -0.903959C 6.87481 -1.28298 5.77025 -0.482908 5.15045 0.21419C 4.83661 0.567167 4.60818 0.930863 4.45958 1.20002C 4.38428 1.33642 4.32692 1.4532 4.28724 1.53869C 4.26735 1.58155 4.25174 1.61687 4.24041 1.64322C 4.23474 1.65641 4.23013 1.66739 4.22657 1.67597C 4.22479 1.68027 4.22327 1.68396 4.22201 1.68705C 4.22139 1.68859 4.22082 1.68998 4.22033 1.69121C 4.22008 1.69182 4.21985 1.6924 4.21963 1.69294C 4.21952 1.69321 4.21937 1.69358 4.21932 1.69371C 4.21917 1.69408 4.21903 1.69443 5.14737 2.06616ZM 7.90471 1.03626C 8.48775 1.1821 8.86553 1.50381 9.07738 1.92468C 9.29741 2.36181 9.38335 3.00077 9.17735 3.82307L 11.1174 4.30909C 11.4124 3.13147 11.3455 1.98236 10.8638 1.02546C 10.374 0.0522952 9.50125 -0.626 8.39004 -0.903959L 7.90471 1.03626Z"/>
</defs>
</svg>

<svg width="24" height="24" xmlns="http://www.w3.org/2000/svg" xmlns:xlink="http://www.w3.org/1999/xlink"><use xlink:href="#path0_fill" fill="#FFF"/><use xlink:href="#path1_stroke" transform="translate(6.85 7.93)" fill="#E0E0E0"/><defs><path id="path0_fill" d="M24 12c0 6.627-5.373 12-12 12S0 18.627 0 12 5.373 0 12 0s12 5.373 12 12z"/><path id="path1_stroke" d="M10.147 4.066l.97.243-.97-.243zm-5 5l-.391.92a1 1 0 0 0 .783 0l-.392-.92zm-5-5l-.97.243.97-.243zm5-2l-.928.371a1 1 0 0 0 1.857 0l-.929-.37zm-3-2l-.242-.97.242.97zm6 0l.243-.97-.243.97zm1.03 3.757c-.317 1.269-1.34 2.343-2.425 3.144A11.781 11.781 0 0 1 4.9 8.079a6.101 6.101 0 0 1-.142.065l-.004.002.392.92.393.92.002-.001.004-.002.014-.006a5.036 5.036 0 0 0 .197-.09 13.78 13.78 0 0 0 2.182-1.31c1.214-.896 2.691-2.322 3.178-4.268l-1.94-.486zm-4.03 5.243l.393-.92-.004-.002a3.079 3.079 0 0 1-.142-.065 11.785 11.785 0 0 1-1.85-1.113c-1.085-.8-2.108-1.874-2.427-3.143l-1.94.486c.489 1.946 1.966 3.371 3.179 4.267a13.784 13.784 0 0 0 2.181 1.31 8.056 8.056 0 0 0 .211.097l.005.002h.002l.392-.919zm-4.03-5.243c-.206-.822-.12-1.461.1-1.898.212-.421.59-.743 1.173-.889l-.485-1.94C.794-.626-.079.052-.569 1.026c-.482.956-.55 2.106-.254 3.283l1.94-.486zM2.39 1.036c.485-.12.88.08 1.26.507a3.495 3.495 0 0 1 .567.89l.003.008V2.44a.115.115 0 0 1-.001-.002l.928-.372c.929-.37.929-.371.929-.372l-.001-.002-.002-.004a1.532 1.532 0 0 0-.018-.044 5.473 5.473 0 0 0-.219-.443 5.49 5.49 0 0 0-.69-.987C4.525-.483 3.42-1.283 1.904-.904l.485 1.94zm2.757 1.03c.929.372.929.372.928.373a.06.06 0 0 1 0 .001v.002h-.001a.705.705 0 0 1 .027-.061 3.502 3.502 0 0 1 .544-.838c.38-.428.776-.628 1.26-.507l.485-1.94C6.875-1.283 5.77-.483 5.15.214a5.498 5.498 0 0 0-.928 1.473l-.002.004v.002c0 .001-.001.001.927.373zm2.758-1.03c.583.146.96.468 1.172.889.22.437.306 1.076.1 1.898l1.94.486c.295-1.178.228-2.327-.253-3.284C10.374.052 9.5-.626 8.39-.904l-.485 1.94z"/></defs></svg>
